images/icons/gitHub-black.svg

<svg width="24" height="24" viewBox="0 0 24 24" fill="none" xmlns="http://www.w3.org/2000/svg">
<path d="M8.02742 18.8419C8.02742 18.9387 7.91613 19.0161 7.77581 19.0161C7.61613 19.0306 7.50484 18.9532 7.50484 18.8419C7.50484 18.7452 7.61613 18.6677 7.75645 18.6677C7.90161 18.6532 8.02742 18.7306 8.02742 18.8419ZM6.52258 18.6242C6.48871 18.721 6.58548 18.8323 6.73065 18.8613C6.85645 18.9097 7.00161 18.8613 7.03064 18.7645C7.05968 18.6677 6.96774 18.5565 6.82258 18.5129C6.69677 18.479 6.55645 18.5274 6.52258 18.6242ZM8.66129 18.5419C8.52097 18.5758 8.42419 18.6677 8.43871 18.779C8.45323 18.8758 8.57903 18.9387 8.72419 18.9048C8.86452 18.871 8.96129 18.779 8.94677 18.6823C8.93226 18.5903 8.80161 18.5274 8.66129 18.5419ZM11.8452 0C5.13387 0 0 5.09516 0 11.8065C0 17.1726 3.37742 21.7645 8.20161 23.3806C8.82097 23.4919 9.03871 23.1097 9.03871 22.7952C9.03871 22.4952 9.02419 20.8403 9.02419 19.8242C9.02419 19.8242 5.6371 20.55 4.92581 18.3823C4.92581 18.3823 4.37419 16.9742 3.58065 16.6113C3.58065 16.6113 2.47258 15.8516 3.65806 15.8661C3.65806 15.8661 4.8629 15.9629 5.52581 17.1145C6.58548 18.9823 8.36129 18.4452 9.05323 18.1258C9.16452 17.3516 9.47903 16.8145 9.82742 16.4952C7.12258 16.1952 4.39355 15.8032 4.39355 11.1484C4.39355 9.81774 4.76129 9.15 5.53548 8.29839C5.40968 7.98387 4.99839 6.6871 5.66129 5.0129C6.67258 4.69839 9 6.31936 9 6.31936C9.96774 6.04839 11.0081 5.90806 12.0387 5.90806C13.0694 5.90806 14.1097 6.04839 15.0774 6.31936C15.0774 6.31936 17.4048 4.69355 18.4161 5.0129C19.079 6.69194 18.6677 7.98387 18.5419 8.29839C19.3161 9.15484 19.7903 9.82258 19.7903 11.1484C19.7903 15.8177 16.9403 16.1903 14.2355 16.4952C14.6806 16.8774 15.0581 17.6032 15.0581 18.7403C15.0581 20.371 15.0435 22.3887 15.0435 22.7855C15.0435 23.1 15.2661 23.4823 15.8806 23.371C20.7194 21.7645 24 17.1726 24 11.8065C24 5.09516 18.5565 0 11.8452 0ZM4.70323 16.6887C4.64032 16.7371 4.65484 16.8484 4.7371 16.9403C4.81452 17.0177 4.92581 17.0516 4.98871 16.9887C5.05161 16.9403 5.0371 16.829 4.95484 16.7371C4.87742 16.6597 4.76613 16.6258 4.70323 16.6887ZM4.18064 16.2968C4.14677 16.3597 4.19516 16.4371 4.29194 16.4855C4.36935 16.5339 4.46613 16.5194 4.5 16.4516C4.53387 16.3887 4.48548 16.3113 4.38871 16.2629C4.29194 16.2339 4.21452 16.2484 4.18064 16.2968ZM5.74839 18.0194C5.67097 18.0823 5.7 18.2274 5.81129 18.3194C5.92258 18.4306 6.0629 18.4452 6.12581 18.3677C6.18871 18.3048 6.15968 18.1597 6.0629 18.0677C5.95645 17.9565 5.81129 17.9419 5.74839 18.0194ZM5.19677 17.3081C5.11935 17.3565 5.11935 17.4823 5.19677 17.5935C5.27419 17.7048 5.40484 17.7532 5.46774 17.7048C5.54516 17.6419 5.54516 17.5161 5.46774 17.4048C5.4 17.2935 5.27419 17.2452 5.19677 17.3081Z" fill="black"/>
</svg>

<svg xmlns="http://www.w3.org/2000/svg" width="24" height="24" fill="none"><path fill="#000" d="M8.027 18.842c0 .097-.11.174-.251.174-.16.015-.271-.063-.271-.174 0-.097.111-.174.251-.174.146-.015.271.063.271.174Zm-1.504-.218c-.034.097.062.208.208.237.125.049.27 0 .3-.096.029-.097-.063-.209-.208-.252-.126-.034-.267.014-.3.111Zm2.138-.082c-.14.034-.237.126-.222.237.014.097.14.16.285.126.14-.034.237-.126.223-.223-.015-.092-.145-.155-.286-.14ZM11.845 0C5.134 0 0 5.095 0 11.806c0 5.367 3.377 9.959 8.202 11.575.619.11.837-.271.837-.586 0-.3-.015-1.955-.015-2.97 0 0-3.387.725-4.098-1.443 0 0-.552-1.408-1.345-1.77 0 0-1.108-.76.077-.746 0 0 1.205.097 1.868 1.248 1.06 1.868 2.835 1.331 3.527 1.012.112-.774.426-1.312.774-1.63-2.704-.3-5.433-.693-5.433-5.348 0-1.33.367-1.998 1.141-2.85-.125-.314-.537-1.61.126-3.285C6.673 4.698 9 6.319 9 6.319a11.369 11.369 0 0 1 3.039-.41c1.03 0 2.07.14 3.038.41 0 0 2.328-1.625 3.34-1.306.662 1.679.25 2.97.125 3.285.774.857 1.248 1.525 1.248 2.85 0 4.67-2.85 5.042-5.554 5.347.445.382.822 1.108.822 2.245 0 1.631-.014 3.649-.014 4.046 0 .314.222.696.837.585C20.719 21.765 24 17.173 24 11.807 24 5.095 18.556 0 11.845 0ZM4.703 16.689c-.063.048-.048.16.034.251.078.078.189.112.252.049.063-.049.048-.16-.034-.252-.078-.077-.189-.111-.252-.048Zm-.522-.392c-.034.063.014.14.11.188.078.049.175.034.209-.033.034-.063-.015-.14-.111-.19-.097-.028-.174-.014-.208.035Zm1.567 1.722c-.077.063-.048.208.063.3.112.112.252.126.315.049.063-.063.034-.208-.063-.3-.107-.112-.252-.126-.315-.049Zm-.551-.71c-.078.047-.078.173 0 .284.077.112.208.16.27.112.078-.063.078-.189 0-.3-.067-.111-.193-.16-.27-.097Z"/></svg>
